X:220
T:Nihavent Longa
M:4/4
O:Turkey
P:(ABCDE) AB Coda
Z:Richard Robinson 
%%TUNEURL: http://www.leeds.ac.uk/music/Info/RRTuneBk/gettune/0000068d.html
%%ID:0000068d
K:D min
DEFG ABA^G|A2F2 F2F2|DEFG ABA^G|A2F2 F2F2|
DEFG AB^cd|efeB ^cBAG|A2^GA B2AB|^c2Bc d4:|
|:efed Bdef|gfed ^cBAG|ABAG FGFE|D2^C2 D4 \
% this appears to have become truncated. Sorry about that,
% I'll fix it sometime.
